X:1
T: Auld Grey Cat, The
S: Jump Start's "Joy of Sets"
M: C|
R: reel
K: EDor
|:\
"Em"e2e2 E3F | GFGA BABc | "D"d2d2 D3E | FAdB AFED |
"Em"e2e2 E3F | EFGA BABc | "D"dcBA "(B)"BAGF | "Em"G2E2 E4 :|
|:\
"Em"B2e2 e3d | Bdef gfed | "D"A2d2 d3B | ABde fedf |
"Em"e2B2 "G"g2B2 | "A"a2B2 "B"b3a | "Em"gfed "Bm"BABd | "Em"e4 e4 :|
